X: 6290
T: Carpe Diem
R: reel
M: 4/4
K: Dmajor
f4 e3d|cedc B2 BF|Bcde f2 fe|a2 ag f2 e2|
f2 efgf ed|cedc B2 BF|Bcde f2 ed|1 cedc B2 FB:|2 cedc B2 ef||
b4 b2 ab|c'2 c'b ag f2|efge e ~f3|e^def gfe=d|
B2 b2 b2 ab|bc'c'b agf2|efge e ~f3|1 e2 dc B2ef:|2 e2 dc B2FB||

